SharedPackages/Infrastructure/DesignResourcesKitIcons/Sources/DesignResourcesKitIcons/DesignSystemImages.xcassets/Color/24px/Microphone-Color-24.imageset/Microphone-Color-24.svg

<svg width="24" height="24" viewBox="0 0 24 24" fill="none" xmlns="http://www.w3.org/2000/svg">
<path d="M8.75 6C8.75 4.20507 10.2051 2.75 12 2.75C13.7949 2.75 15.25 4.20507 15.25 6V11C15.25 12.7949 13.7949 14.25 12 14.25C10.2051 14.25 8.75 12.7949 8.75 11V6Z" fill="#CCCCCC"/>
<path d="M5.42189 9.99536C5.76649 10.0152 6.02973 10.3107 6.0099 10.6553L6.00599 10.7317C5.97064 11.5214 6.0917 12.3105 6.36244 13.0537L6.38905 13.1255C6.66908 13.8647 7.09263 14.5415 7.63539 15.1169L7.68824 15.1724C8.23792 15.7404 8.89463 16.1944 9.62074 16.5081C10.3703 16.8318 11.1781 16.9993 11.9946 17L12.0712 16.9996C12.8616 16.9903 13.6427 16.8247 14.3694 16.5123L14.4395 16.4817C15.1617 16.1603 15.8135 15.6992 16.3573 15.1248C16.9186 14.5318 17.3531 13.8305 17.6339 13.0638L17.6598 12.9918C17.9137 12.2702 18.0274 11.5067 17.9945 10.7424L17.9907 10.666L17.9898 10.6338C17.9881 10.3032 18.2461 10.0258 18.58 10.0072C18.9138 9.9886 19.2011 10.2355 19.2362 10.5643L19.2388 10.5964L19.2433 10.6887C19.283 11.6123 19.1458 12.5349 18.8389 13.4069L18.8076 13.4939C18.4683 14.4203 17.9433 15.2676 17.265 15.9841C16.6079 16.6782 15.8203 17.2353 14.9476 17.6237L14.8629 17.6608C14.1505 17.967 13.3949 18.1563 12.625 18.2229V20.75H17.25L17.2821 20.7509C17.6124 20.7676 17.875 21.0406 17.875 21.375C17.875 21.7094 17.6124 21.9824 17.2821 21.9991L17.25 22H6.75001C6.40484 22 6.12501 21.7202 6.12501 21.375C6.12501 21.0298 6.40484 20.75 6.75001 20.75H11.375V18.2229C10.6314 18.1586 9.90106 17.9798 9.21022 17.6918L9.12513 17.6556C8.2477 17.2766 7.45415 16.7279 6.78993 16.0415L6.72609 15.9747C6.07027 15.2795 5.55847 14.4616 5.2201 13.5684L5.188 13.4816C4.8503 12.5546 4.70529 11.5683 4.76197 10.5834L4.76466 10.5514C4.80033 10.2227 5.08804 9.97615 5.42189 9.99536ZM12.125 2C14.2651 2 16 3.7349 16 5.875V11.125C16 13.2651 14.2651 15 12.125 15H11.875C9.73491 15 8.00001 13.2651 8.00001 11.125V5.875C8.00001 3.7349 9.73491 2.00001 11.875 2H12.125ZM11.875 3.25C10.4253 3.25001 9.25001 4.42526 9.25001 5.875V11.125C9.25001 12.5747 10.4253 13.75 11.875 13.75H12.125C13.5748 13.75 14.75 12.5747 14.75 11.125V5.875C14.75 4.42525 13.5748 3.25 12.125 3.25H11.875Z" fill="#686868"/>
</svg>

<svg fill="none" viewBox="0 0 24 24" xmlns="http://www.w3.org/2000/svg">
  <path fill="#DDD" d="M8.75 6a3.25 3.25 0 0 1 6.5 0v5a3.25 3.25 0 0 1-6.5 0V6Z"/>
  <path fill="url(#Microphone-Color-24_svg__a)" d="M5.422 9.995c.344.02.608.316.588.66l-.004.077a6 6 0 0 0 .356 2.322l.027.072a6 6 0 0 0 1.246 1.99l.053.056A6.001 6.001 0 0 0 11.995 17h.076a5.998 5.998 0 0 0 2.298-.488l.07-.03a6 6 0 0 0 3.195-3.418l.026-.072a6 6 0 0 0 .334-2.25l-.003-.076-.001-.032a.625.625 0 0 1 1.246-.07l.003.032.004.093a7.25 7.25 0 0 1-.404 2.718l-.031.087a7.248 7.248 0 0 1-3.86 4.13l-.085.037a7.25 7.25 0 0 1-2.238.562v2.527h4.657a.625.625 0 0 1 0 1.25H6.75a.625.625 0 1 1 0-1.25h4.625v-2.527a7.249 7.249 0 0 1-2.165-.531l-.085-.036a7.25 7.25 0 0 1-2.335-1.614l-.064-.067a7.25 7.25 0 0 1-1.506-2.407l-.032-.086a7.25 7.25 0 0 1-.426-2.899l.003-.032a.625.625 0 0 1 .657-.556ZM12.125 2A3.875 3.875 0 0 1 16 5.875v5.25A3.875 3.875 0 0 1 12.125 15h-.25A3.875 3.875 0 0 1 8 11.125v-5.25A3.875 3.875 0 0 1 11.875 2h.25Zm-.25 1.25A2.625 2.625 0 0 0 9.25 5.875v5.25a2.625 2.625 0 0 0 2.625 2.625h.25a2.625 2.625 0 0 0 2.625-2.625v-5.25a2.625 2.625 0 0 0-2.625-2.625h-.25Z"/>
  <defs>
    <linearGradient id="Microphone-Color-24_svg__a" x1="12" x2="12" y1="2" y2="22" gradientUnits="userSpaceOnUse">
      <stop stop-color="#888"/>
      <stop offset="1" stop-color="#444"/>
    </linearGradient>
  </defs>
</svg>
